!!!!SEGMENT: pl-kk--kk-i-262--002_anonim--alleluia-ave-maria.krn
!!!cenid: 16xx:778
!!!COM: Anonim
!!!COM-rismID: pe30004985
!!!CDT:
!!!CNT:
!!!OTL: Alleluia Ave Maria
!!!PDT:
!!!AGN: Sacred
!!!YEC: Copyright 2022 Narodowy Instytut Fryderyka Chopina (https://polishscores.org)
!!!YEM: License CC-BY-4.0 (https://creativecommons.org/licenses/by/4.0)
!!!SMS-siglum: PL-Kk
!!!SMS-shelfmark: Kk.I.262
!!!SMS-shelfwork: 002 W
!!!SMS-variant:
!!!SMS-altvar:
!!!NIFC-rismSourceID: 1001143735
!!!NIFC-rismChildID: 1001143737
!!!NIFC-islandoraID: pl-kk:4720
!!!URL-pdf-islandora: https://repozytorium.nifc.pl/islandora/object/pl-kk%3A4720/datastream/PDF/view
!!!URL-scan: https://polish.musicsources.pl/pl/lokalizacje/galeria/rekopisy/5882 @EN{Scan on Polish Music Sources Website} @PL{Skany w portalu Dziedzictwo Muzyki Polskiej w otwartym dostępie}
!!!IIIF:
!!!ONB-nifc: UWAGA: utwory w zbiorze: 1. Rorate caeli,< 2. Alleluia Ave Maria
!!!AIN: 1 alto 2 empty 1 tenor 1 vox
!!!key:
**kern	**text	**kern	**text	**kern	**text	**kern	**text	**kern	**text
*part5	*	*part4	*	*part3	*	*part2	*	*part1	*
*staff5	*	*staff4	*	*staff3	*	*staff2	*	*staff1	*
*Iempty	*	*Iempty	*	*Itenor	*	*Ialto	*	*Ivox	*
*I"Baſso Ripieno	*	*I"Baſso.	*	*I"Tenore	*	*I"Alto.	*	*I"Canto	*
*I'B rip	*	*I'B	*	*I'T	*	*I'A	*	*I'S	*
*clefF4	*	*clefF4	*	*clefC4	*	*clefC3	*	*clefC1	*
*k[b-]	*	*k[b-e-]	*	*k[b-e-]	*	*k[b-]	*	*k[b-e-]	*
*g:dor	*	*g:dor	*	*g:dor	*	*g:dor	*	*g:dor	*
*M2/2	*	*M2/2	*	*M2/2	*	*M2/2	*	*M2/2	*
*met(c|)	*	*met(c|)	*	*met(c|)	*	*met(c|)	*	*met(c|)	*
*>[A,<B,<A]	*	*>[A,<B,<A]	*	*>[A,<B,<A]	*	*>[A,<B,<A]	*	*>[A,<B,<A]	*
=1	=1	=1	=1	=1	=1	=1	=1	=1	=1
*>A	*	*>A	*	*>A	*	*>A	*	*>A	*
*2\right	*	*2\right	*	*2\right	*	*2\right	*	*2\right	*
!LO:TX:t=P:znaki:problem= BB- nad B-, brak E-	!	!LO:TX:t=P:problem=znaki BB- E- B-	!	!	!	!LO:TX:t=P:znaki:problem= brak e- przy kluczu	!	!LO:TX:t=P:znaki:problem= b- ee-	!
2G\	Al-	2G\	Al-	2B-\	Al-	2g\	Al-	2dd\	Al-
2A\	-le-	2A\	-le-	(4A\	-le-	2f#X\	-le-	2cc\	-le-
.	.	.	.	4c\)	.	.	.	.	.
=2	=2	=2	=2	=2	=2	=2	=2	=2	=2
2B-\	-lu-	2B-\	-lu-	2d\	-lu-	2g\	-lu-	2b-\	-lu-
!	!	!	!	!	!	!	!	!LO:TX:a:t=P:global:problem=oddech jako rozdzielacz słów	!
2F#X,<\	-ia	2F#X,<\	-ia	2A,<\	-ia	2d,<\	-ia	2dd,<\	-ia
=3	=3	=3	=3	=3	=3	=3	=3	=3	=3
*	*ij	*	*ij	*	*	*	*	*	*
2G\	Al-	2G\	Al-	2G/	al-	(4d\	al-	(4b-\	al-
.	.	.	.	.	.	4en\	.	4cc\)	.
2F\	-le-	2Fn\	-le-	2A\	-le-	2fn\)	.	1dd\	-le-
=4	=4	=4	=4	=4	=4	=4	=4	=4-	=4
1E-X	-lu-	1E-X	-lu-	2B-\	-lu-	2.g\	-le-	.	.
.	.	.	.	2G/	.	.	.	2cc\	-lu-
.	.	.	.	.	.	4g\	-lu-	.	.
=5-	=5	=5	=5	=5	=5	=5	=5	=5	=5
2D,<\	-ia	2D,<\	-ia	2A,</	-ia	2f#X,<\	-ia	2dd,<\	-ia
*	*Xij	*	*Xij	*	*	*	*ij	*	*
4G\	al-	4G\	al-	1G/	al-	2g\	al-	2b-\	al-
4F\	.	4F\	.	.	.	.	.	.	.
=6	=6	=6	=6	=6-	=6	=6	=6	=6	=6
2E-X\	-le-	2E-X\	.	.	.	2g\	-le-	2ee-X\	-le-
2BB-/	.	2BB-/	-le-	[<2B-\	.	2fn\	-lu-	2dd\	.
=7-	=7	=7	=7	=7	=7	=7	=7	=7	=7
1F	-lu-	1F	-lu-	2B-\]	.	1f,<	-ia	1cc	-lu-
*	*	*	*	*	*	*	*Xij	*	*
.	.	.	.	2A\	-le-	.	.	.	.
=8	=8	=8	=8	=8	=8	=8	=8	=8	=8
2BB-,</	-ia	2BB-,</	-ia	2B-\	-lu-	2f\	al-	2dd,<\	-ia
*	*	*	*ij	*	*	*	*	*	*ij
2E-X\	al-	2E-X\	al-	[2G/	.	1e-X\	-le-	2b-\	al-
=9	=9	=9	=9	=9	=9	=9-	=9	=9	=9
2C/	-le-	2C/	-le-	2G/]	.	.	.	2.a\	-le-
2D\	-lu-	2D\	-lu-	2F#X/	.	2d\	-lu-	.	.
.	.	.	.	.	.	.	.	4a\	-lu-
=10	=10	=10	=10	=10	=10	=10	=10	=10	=10
2GG/	-ia	2GG/	-ia	2G/	-ia.	2d\	-ia	4b-,<\	-ia
*	*	*	*Xij	*	*	*	*	*	*Xij
.	.	.	.	.	.	.	.	4dd\	al-
2r	.	2r	.	2r	.	2r	.	4ccn\	-le-
.	.	.	.	.	.	.	.	4a\	-lu-
!	!	!LO:LB:g=original	!	!LO:LB:g=original	!	!LO:LB:g=original	!	!LO:LB:g=original	!
=11	=11	=11	=11	=11	=11	=11	=11	=11	=11
0r	.	0r	.	0r	.	4r	.	2b-\	-ia
.	.	.	.	.	.	4g\	al-	.	.
.	.	.	.	.	.	4fn\	-le-	(4a\	al-
.	.	.	.	.	.	4d\	-lu-	4dd\)	.
=12	=12	=12	=12	=12	=12	=12	=12	=12	=12
.	.	.	.	.	.	2.e-X,<\	-ia	(4g\	.
.	.	.	.	.	.	.	.	4a\)	.
.	.	.	.	.	.	.	.	(4b-\	-le-
.	.	.	.	.	.	4e-\	al-	4cc\)	.
=13	=13	=13	=13	=13	=13	=13	=13	=13	=13
1r	.	1r	.	4r	.	(4d\	-le-	(2.dd\	-lu-
.	.	.	.	4d\	Al-	4f#X\	.	.	.
.	.	.	.	4c\	-le-	4g\	.	.	.
!LO:TX:t=P:problem=wykreślone takty	!	!	!	!	!	!	!	!	!
.	.	.	.	4A\	-lu-	4a\)	.	4cc\)	.
!LO:LB:g=original	!	!	!	!	!	!	!	!	!
=14	=14	=14	=14	=14	=14	=14	=14	=14	=14
4r	.	4r	.	2B-\	-ia	2.g\	.	2dd,<\	-ia
4G\	Al-	4G\	Al-	.	.	.	.	.	.
4Fn\	-le-	4Fn\	-le-	(4A\	al-	.	.	4r	.
4D\	-lu-	4D\	-lu-	4d\)	.	4a\	.	4dd\	al-
=15	=15	=15	=15	=15	=15	=15	=15	=15	=15
2.E-X,<\	-ia	2.E-X,<\	-ia	4G/	.	(4g\	.	4b-\	-le-
.	.	.	.	4A/	.	4f#X\)	.	4a\	.
.	.	.	.	(4B-/	-le-	(4g\	-lu-	(4g\	-lu-
*	*ij	*	*	*	*	*	*	*	*
4E-\	Al-	4E-\	al-	4c/)	.	4a\)	.	4cc\)	.
=16	=16	=16	=16	=16	=16	=16	=16	=16	=16
(4D/	-le-	(4D/	-le-	2.d\	-lu-	2f#X,<\	-ia	2a,<\	-ia
4C/)	.	4C/)	.	.	.	.	.	.	.
(4BB-/	-lu-	(4BB-/	-lu-	.	.	4g\	al-	(4b-\	al-
4AA/)	.	4AA/)	.	4c\	.	4f#X\	.	4cc\)	.
=17	=17	=17	=17	=17	=17	=17	=17	=17	=17
4GG,</	-ia	4GG,</	-ia	2.B-X,<\	-ia	2g\	.	4dd\	-le-
*	*Xij	*	*	*	*	*	*	*	*
4G\	al-	4G\	al-	.	.	.	.	2b-\	.
4E-X\	-le-	4E-X\	.	.	.	2g\	.	.	.
4C/	-lu-	4C/	.	4e-X\	al-	.	.	4cc\	.
=18	=18	=18	=18	=18	=18	=18	=18	=18	=18
4F,<\	-ia	4F\	.	(4c\	.	2fn\	-le-	4a\	-lu-
*	*ij	*	*	*	*	*	*	*	*
4BB-/	al-	4BB-/	.	4d\)	.	.	.	2b-\	.
4F\	-le-	4F\	-le-	4c\	-le-	2f\	-lu-	.	.
4FF/	-lu-	4FF/	-lu-	4c\	-lu-	.	.	4a\	-ia
!LO:LB:g=original	!	!	!	!	!	!	!	!	!
=19	=19	=19	=19	=19	=19	=19	=19	=19	=19
4BB-,</	-ia	4BB-,</	-ia	4d,<\	-ia	4f,<\	-ia	4b-,<\	.
*	*Xij	*	*	*	*	*	*	*	*
4B-\	al-	4B-\	al-	4B-\	al-	4f\	al-	4dd\	al-
4A\	-le-	4A\	.	4c\	.	4f#X\	.	4cc\	.
*	*	*	*	*	*	*custos:f#	*	*	*
4G\	-lu-	4G\	.	4d\	.	4g\	.	4b-\	.
!	!	!	!	!	!	!LO:LB:g=original	!	!	!
=20	=20	=20	=20	=20	=20	=20	=20	=20	=20
4D,<\	-ia	4D\	.	4d\	.	4f#X\	-le-	(4a\	-le-
*	*ij	*	*	*	*	*	*	*	*
4G\	al-	4G\	-le-	4d\	-le-	2g\	.	4b-\)	.
2D\	-le-	2D\	-lu-	2d\	-lu-	.	.	2a\	-lu-
.	.	.	.	.	.	4f#X\	-lu-	.	.
=21	=21	=21	=21	=21	=21	=21-	=21	=21	=21
0GG;	-luia	0GG;	-ia.	0d;	-ia.	0g	-ia.	0bn;	-ia.
*	*Xij	*	*	*	*	*	*	*	*
=22-	=22	=22-	=22	=22-	=22	=22	=22	=22	=22
.	.	.	.	.	.	.	.	.	.
!	!	!LO:LB:g=original	!	!LO:LB:g=original	!	!	!	!LO:LB:g=original	!
=23||	=23||	=23||	=23||	=23||	=23||	=23||	=23||	=23||	=23||
*>B	*	*>B	*	*>B	*	*>B	*	*>B	*
*M2/2	*	*M2/2	*	*M2/2	*	*M2/2	*	*M2/2	*
*met(c|)	*	*met(c|)	*	*met(c|)	*	*met(c|)	*	*met(c|)	*
00r	.	00r	.	00r	.	1r	.	2g\	A-
.	.	.	.	.	.	.	.	4b-X\	-ve
.	.	.	.	.	.	.	.	4b-\	Ma-
=24	=24	=24	=24	=24	=24	=24	=24	=24	=24
.	.	.	.	.	.	2d\	A-	4a\	-ri-
.	.	.	.	.	.	.	.	4a,<\	-a
.	.	.	.	.	.	4fn\	-ve	1dd\	A-
.	.	.	.	.	.	4f\	Ma-	.	.
=25	=25	=25	=25	=25	=25	=25	=25	=25-	=25
.	.	.	.	.	.	2en\	-ri-	.	.
.	.	.	.	.	.	2a\	-a	2cc#X\	.
=26	=26	=26	=26	=26	=26	=26	=26	=26	=26
.	.	.	.	.	.	2f#X\	gra-	4dd\	.
.	.	.	.	.	.	.	.	4cc\	.
.	.	.	.	.	.	1g\	.	4b-X\	.
.	.	.	.	.	.	.	.	8cc\L	.
.	.	.	.	.	.	.	.	8b-\J	.
=27	=27	=27	=27	=27	=27	=27-	=27	=27	=27
0r	.	0r	.	1r	.	.	.	1a	.
.	.	.	.	.	.	2f#X\	-ti-	.	.
=28	=28	=28	=28	=28	=28	=28	=28	=28	=28
.	.	.	.	2G/	A-	4g,<\	-a	(4b-X\	-ve
.	.	.	.	.	.	4g\	a-	4cc,<\)	.
.	.	.	.	4B-\	-ve	4d,<\|	-ve	(4dd\	Ma-
.	.	.	.	4B-\	Ma-	4en\|	Ma-	4g/)	.
=29	=29	=29	=29	=29	=29	=29	=29	=29	=29
2D\	A-	2D\	A-	4A\	-ri-	2f\	-ri-	2a\	-ri-
.	.	.	.	4A,<\	-a	.	.	.	.
4F\	-ve	4F\	-ve	1d\	gra-	2d\	-a	2a,<\	-a
4F\	Ma-	4F\	Ma-	.	.	.	.	.	.
=30	=30	=30	=30	=30-	=30	=30	=30	=30	=30
4En\	-ri-	4En\	-ri-	.	.	2en\	gra-	(2g\	gra-
4E\	-a	4E\	-a	.	.	.	.	.	.
4A\	gra-	4A\	gra-	2c#X\	-ti-	4e\	-ti-	1an\)	.
4G\	-ti-	4G\	-ti-	.	.	4e\	-a	.	.
=31	=31	=31	=31	=31	=31	=31	=31	=31-	=31
2F#X,<\	-a	2F#X,<\	-a	4d\	-a	1d	ple-	.	.
.	.	.	.	4cn\	.	.	.	.	.
[<2G\	ple-	[<2G\	ple-	4B-X\	ple-	.	.	4b-\	-ti-
.	.	.	.	8c\L	.	.	.	4b-,<\	-a
*	*	*	*	*	*	*custos:en	*	*	*
.	.	.	.	8B-\J	.	.	.	.	.
!LO:LB:g=original	!	!	!	!	!	!LO:LB:g=original	!	!	!
=32	=32	=32	=32	=32	=32	=32	=32	=32	=32
!LO:TX:t=P:problem=brak zakończenia ligatury	!	!	!	!	!	!	!	!	!
2G\]	.	2G\]	.	1A	.	2en\	-na	(2cc\	ple-
2F#X\	.	2F#X\	.	.	.	2f#X\	Do-	2dd\)	.
=33	=33	=33	=33	=33	=33	=33	=33	=33	=33
2G\	-na	2G\	-na	4B-,<\	-na	2d\	.	2g/	-na
.	.	.	.	4G/	Do-	.	.	.	.
2r	.	2r	.	4G/	-mi-	1g\	.	2r	.
.	.	.	.	4G/	-n(us)	.	.	.	.
!	!	!	!	!	!	!	!	!LO:LB:g=original	!
=34	=34	=34	=34	=34	=34	=34-	=34	=34	=34
1r	.	1rA	.	2A\	Te-	.	.	1ree	.
.	.	.	.	2Bn\	.	4fn\	-mi-	.	.
.	.	.	.	.	.	4f\	-n(us)	.	.
=35	=35	=35	=35	=35	=35	=35	=35	=35	=35
2r	.	2r	.	4c\	.	4e-X\	Te-	2r	.
.	.	.	.	4G,</	-cum	4d,<\	-cum	.	.
4E-X\	be-	4E-X\	be-	4B-X\	be-	4e-X\	be-	4g/	be-
4E-\	-ne-	4E-\	-ne-	4B-\	-ne-	4e-\	-ne-	4g/	-ne-
=36	=36	=36	=36	=36	=36	=36	=36	=36	=36
2F\	-di-	2F\	-di-	2c\	-di-	2d\	-di-	2a-X\	-di-
2G\	-cta	2G\	-cta	2Bn\	-cta	2d\	-cta	4g/	-cta
.	.	.	.	.	.	.	.	4f,</	.
=37	=37	=37	=37	=37	=37	=37	=37	=37	=37
2C/	Tu	2C,</	Tu	2c\	Tu	2e-X,<\	Tu	2e-X,</	Tu
[<2c\	in	[<2c\	in	2r	.	2e-\	in	2g/	in
!	!	!	!	!LO:LB:g=original	!	!	!	!	!
=38	=38	=38	=38	=38	=38	=38	=38	=38	=38
*	*	*	*	*lig	*	*	*	*	*
!	!	!	!	!LO:N:vis=0	!	!	!	!	!
2c\]	.	2c\]	.	1d	in	2f\	mu-	2a-X\	mu-
[<2B-X\	mu-	[<2B-X\	mu-	.	.	2g\	-li-	2b-\	-li-
!	!	!LO:LB:g=original	!	!	!	!	!	!	!
=39	=39	=39	=39	=39-	=39	=39	=39	=39	=39
!	!	!LO:TX:a:t=P:problem=brak zakończenia ligatury	!	!LO:N:vis=0	!	!	!	!	!
2B-\]	.	2B-\]	.	1c	.	2c\	-e-	2cc\	-e-
[<2A-X\	[[li]]-	[<2A-X\	.	.	.	4f\	.	2f/	.
*custos:A	*	*	*	*	*	*	*	*	*
.	.	.	.	.	.	4e-X\	.	.	.
*	*	*	*	*Xlig	*	*	*	*	*
!LO:LB:g=original	!	!	!	!	!	!	!	!	!
=40	=40	=40	=40	=40	=40	=40	=40	=40	=40
!LO:TX:t=P:problem=brak zakończenia ligatury	!	!	!	!	!	!	!	!	!
2A-X\]	.	2A-\]	.	2.B-X\	mu-	4d\	.	2b-\	.
.	.	.	.	.	.	4B-/	.	.	.
2G\	-li-	2G\	-li-	.	.	1e-X\	.	2e-X/	.
.	.	.	.	4B-\	-li-	.	.	.	.
=41	=41	=41	=41	=41	=41	=41-	=41	=41	=41
2.F\	-e-	2.F\	-e-	2.A-X/	-e-	.	.	2.f/	.
.	.	.	.	.	.	2d\	-ri-	.	.
4F\	-ri-	4F\	-ri-	4A-/	-ri-	.	.	4f/	-ri-
=42	=42	=42	=42	=42	=42	=42	=42	=42	=42
2E-X,<\	-bus	2E-X,<\	-bus	2G,</	-bus	2e-X\	-bus	4g,<\	-bus
.	.	.	.	.	.	.	.	4g\	et
*	*	*	*	*lig	*	*	*	*	*
*	*	*	*	*	*	*custos:a-	*	*	*
!	!	!	!	!LO:N:vis=0	!	!	!	!	!
2c\	et	2c\	et	1c\	et	2r	.	1ee-X\	be-
!	!	!	!	!	!	!LO:LB:g=original	!	!	!
=43	=43	=43	=43	=43-	=43	=43	=43	=43-	=43
2F\	be-	2F\	be-	.	.	1a-X	be-	.	.
!	!	!	!	!LO:N:vis=0	!	!	!	!	!
2B-\	-ne-	2B-\	-ne-	1B-\	.	.	.	1dd\	-ne-
=44	=44	=44	=44	=44-	=44	=44-	=44	=44-	=44
(2E-X\	-di-	2E-X\	-di-	.	.	1g	-ne-	.	.
!	!	!	!	!LO:N:vis=0	!	!	!	!	!
!	!	!	!	!LO:SIC:v:s=1A-\	!	!	!	!	!
2A-X\)	.	2A-X\	.	1A\	.	.	.	1cc\	.
=45	=45	=45	=45	=45-	=45	=45-	=45	=45-	=45
2D,<\	-ctus	2D,<\	-ctus	.	.	1f	-di-	.	.
*	*	*	*	*Xlig	*	*	*	*	*
2G\	Fru-	2G\	Fru-	[2G/	.	.	.	2bn\	-di-
!	!	!	!	!	!	!	!	!LO:LB:g=original	!
=46	=46	=46	=46	=46	=46	=46	=46	=46	=46
2C,</	-ct(us)	2C,</	-ct(us)	2G,</]	.	2e-X,<\	-ctus	2cc,<\	ctus
*	*	*	*	*	*	*	*ij	*	*
4G\	be-	4G\	be-	4B-X\	be-	4d\	be-	4g/	be-
*custos:G	*	*	*	*	*	*	*	*	*
4G\	-ne-	4G\	-ne-	4B-\	-ne-	4d\	-ne-	4g/	-ne-
!LO:LB:g=original	!	!	!	!	!	!	!	!	!
=47	=47	=47	=47	=47	=47	=47	=47	=47	=47
2G\	-di-	2G\	-di-	2c\	-di-	2en\	-di-	2an\	-di-
2F#X\	-ct(us)	2F#X\	-ct(us)	2d,<\	-ct(us)	2f#X\	-ctus	2a,<\	-ctus
*	*	*	*	*	*	*	*Xij	*	*
=48	=48	=48	=48	=48	=48	=48	=48	=48	=48
2G\	Fru-	2G\	Fru-	2B-\	Fru-	2d\	Fru-	2b-\	Fru-
2D\	-ct(us)	2D\	-ct(us)	2A\	-ct(us)	2f#X\	-ct(us)	2dd,<\	-ct(us)
!	!	!LO:LB:g=original	!	!	!	!	!	!	!
=49	=49	=49	=49	=49	=49	=49	=49	=49	=49
2G\	Ven-	2G\	Ven-	2B-\	Ven-	2d\	Ven-	2b-\	Ven-
2F\	-tris	2F\	-tris	2A\	-tris	2fn\	-tris	1dd\	-tris
=50	=50	=50	=50	=50	=50	=50	=50	=50-	=50
1E-X	Tu-	1E-X	Tu-	2B-\	Tu-	1g	Tu-	.	.
.	.	.	.	2G/	.	.	.	2cc\	Tu-
=51	=51	=51	=51	=51	=51	=51	=51	=51-	=51
0D	-i.	0D;	-i.	0A;	-i.	0f#X;<	-i.	0dd;<	-i.
=52	=52	=52-	=52	=52	=52	=52-	=52	=52	=52
!LO:TX:b:t=Alleluja da Capo	!	!LO:TX:b:t=Alleluja da Capo\n O ad M. D Gm	!	!LO:TX:b:t=Alleluja da Capo.\n O. ad M. D. Gm.	!	!LO:TX:b:t=Alleluja da Capo	!	!LO:TX:b:t=Alleluja da Capo.\n O. ad M. D. Gm	!
.	.	.	.	.	.	.	.	.	.
==	==	==	==	==	==	==	==	==	==
*-	*-	*-	*-	*-	*-	*-	*-	*-	*-
!!!system-decoration: [s1,s2,s3,s4,s5]
!!!RDF**kern: < = below
!!!RDF**kern: | = vertical stroke
!!!ENC: Marta Lawrence
!!!END: 2021-02-19
!!!ENC: Katarzyna Serwa
!!!END: 2021-02-15
